X:5
T:BlackBerry Blossom improv
M:4/4
L:1/8
Q:200
R:h
K:G
|D2|:GABG ABcA|BcdB cdec|d2 gage dg|edBA dBAF|GABG ABcA|BcdB cdec|d2 ga
gedB|1edBA G2 D2:|2edBA G2 z2||:E2 F2 G2 A2|B2 Bc BA GA|BcBc BAGB|AGED G
EDB,|E2 F2 G2 A2|B2 Bc d2 de|gedB edBA|dBAF G2 z2:|
